img/facebook.svg

<svg width="18" height="39" viewBox="0 0 18 39" fill="none" xmlns="http://www.w3.org/2000/svg">
	<path d="M4.6588 39V22.0042H0V14.3584H4.76532V8.03139C4.76532 8.03139 4.98274 0.0619276 11.095 0H17.8977V7.50299H13.678C13.678 7.50299 11.8963 7.50299 11.8963 9.74534C11.8963 11.9829 11.8963 14.4918 11.8963 14.4918H18L17.2669 22.1328H12.0028V39H4.6588Z" fill="white" />
</svg>

<svg width="18" height="39" viewBox="0 0 18 39" fill="none" xmlns="http://www.w3.org/2000/svg"><path d="M4.659 39V22.004H0v-7.646h4.765V8.031S4.983.061 11.095 0h6.803v7.503h-4.22s-1.782 0-1.782 2.242v4.747H18l-.733 7.64h-5.264V39H4.659z" fill="#fff"/></svg>
